X:1
T:Title
%%score { ( 1 3 ) | ( 2 4 ) }
L:1/8
M:4/4
K:Ab
V:1 treble nm="Grand Piano"
V:3 treble 
V:2 bass 
V:4 bass 
V:1
 z4 z2[Q:1/4=100] [CE]>[CE] | [CA]>[CA] [CA]>[DB] [Ec]>[Ec] [DB]>[CA] |[M:3/4] B>F F>F F2 | %3
[M:1/4] F>F |[M:4/4] [=DB]>[Dc] [DB]>[Dc] [DB]>[DA] [DG]>[DF] |[M:7/8] E-E-E- E- E3 |[M:1/4] E>E | %7
[M:4/4] [CA]>[CA] [CA]>[DB] [Ec]>[Ec] [DB]>[CA] |[M:3/4] B>F F>F F2 |[M:1/4] F>F | %10
[M:4/4] E>c c>A B>B F>G | [CA]6 z2 | [CE]2 [CF]2 [CG]2 [CA]2 | [Ed]>[Gd] [Gd]>[Gd] [Gd]4 | %14
 E2 F2 G2 A2 | [Ec]>[Ec] [Ec]>[Ec] [Ec]4 | [CE]2 [CF]2 [CG]2 [CA]2 | [_Ge]>[Ge] [Ge]>[G=d] [F_d]4 | %18
 F>F G>A c>c c>B |[M:7/8] A2 G2 [CA]3 |] %20
V:2
 z4 z2 [A,,A,]>[A,,A,] | [A,,E,]>[A,,E,] [A,,E,]>[A,,A,] [A,,A,]>[A,,A,] [A,,A,]>[A,,E,] | %2
[M:3/4] [D,F,D]>[D,A,D] [D,A,D]>[D,A,D] [D,A,D]2 |[M:1/4] [D,A,D]>[D,A,D] | %4
[M:4/4] [B,,A,]>[B,,A,] [B,,A,]>[B,,A,] [B,,F,]>[B,,B,] [B,,B,]>[B,,A,] | %5
[M:7/8] E,->[E,-G,][E,-A,]>[E,-A,] [E,B,]3 |[M:1/4] [E,B,D]>[E,G,D] | %7
[M:4/4] [A,,E,]>[A,,E,] [A,,E,]>[A,,A,] [A,,A,]>[A,,A,] [A,,A,]>[A,,E,] | %8
[M:3/4] [D,F,D]>[D,A,D] [D,A,D]>[D,A,D] [D,A,D]2 |[M:1/4] [D,A,D]>[D,A,D] | %10
[M:4/4] [E,A,C]>[E,A,E] [E,A,E]>[E,A,C] [E,G,D]>[E,G,D] [E,B,D]>[E,B,D] | [A,,A,]6 z2 | %12
 [A,,A,]2 [A,,A,]2 [A,,A,]2 [A,,A,]2 | [E,G,]>[E,B,] [E,B,]>[E,B,] [E,B,]4 | %14
 [E,G,D]2 [E,G,D]2 [E,B,D]2 [E,A,C]2 | [A,,A,]>[A,,A,] [A,,A,]>[A,,A,] [A,,A,]4 | %16
 [A,,A,]2 [A,,A,]2 [A,,A,]2 [A,,A,]2 | [C,A,]>[C,A,] [C,A,]>[C,A,] [D,A,]4 | %18
 [D,A,D]>[D,A,D] [D,A,D]>[E,A,C] [E,A,E]>[E,A,E] [E,A,E]>[E,G,D] | %19
[M:7/8] [E,A,C]2 [E,B,D]2 [A,,A,]3 |] %20
V:3
 x8 | x8 |[M:3/4] x6 |[M:1/4] x2 |[M:4/4] x8 |[M:7/8] z z/ B,<CC/ D3 |[M:1/4] x2 |[M:4/4] x8 | %8
[M:3/4] x6 |[M:1/4] x2 |[M:4/4] x8 | x8 | x8 | x8 | x8 | x8 | x8 | x8 | x8 |[M:7/8] x7 |] %20
V:4
 x8 | x8 |[M:3/4] x6 |[M:1/4] x2 |[M:4/4] x8 |[M:7/8] G,2 z z z z2 |[M:1/4] x2 |[M:4/4] x8 | %8
[M:3/4] x6 |[M:1/4] x2 |[M:4/4] x8 | x8 | x8 | x8 | x8 | x8 | x8 | x8 | x8 |[M:7/8] x7 |] %20

